X: 41240
T: True Joak
R: jig
M: 6/8
K: Dmajor
|:c|d2 e fga|c2 d edc|d>cB AGF|GEA F2 D|
d2 e ff/g/a|cAd e2 c|d>cB EA^G|A3 A2:|
|:G|F2 G AFd|AFB AFD|G2 A BGg|eB/c/d cBA|
d>ef f^ef|e>fg gBb|a>gf e2 c|d3 d2:|

